_inc/systems/logos/auto-sports.svg

<?xml version="1.0" encoding="utf-8"?>
<svg viewBox="0 0 200 40" xmlns="http://www.w3.org/2000/svg">
  <path d="M 59.11 29.391 L 59.11 29.391 L 60.788 24.453 L 60.788 24.453 C 62.467 24.912 64.005 25.141 65.404 25.141 L 65.404 25.141 L 65.404 25.141 C 66.803 25.141 67.931 25.081 68.791 24.961 L 68.791 24.961 L 69.03 23.465 L 66.543 23.226 L 66.543 23.226 C 64.644 23.047 63.299 22.617 62.506 21.939 L 62.506 21.939 L 62.506 21.939 C 61.72 21.261 61.328 20.303 61.328 19.067 L 61.328 19.067 L 61.328 19.067 C 61.328 18.527 61.388 17.929 61.507 17.271 L 61.507 17.271 L 61.507 17.271 C 61.967 14.718 62.799 12.961 64.005 12.005 L 64.005 12.005 L 64.005 12.005 C 65.217 11.047 67.092 10.568 69.63 10.568 L 69.63 10.568 L 69.63 10.568 C 72.167 10.568 74.406 10.817 76.344 11.316 L 76.344 11.316 L 74.785 16.104 L 74.785 16.104 C 73.047 15.805 71.648 15.655 70.589 15.655 L 70.589 15.655 L 70.589 15.655 C 69.53 15.655 68.631 15.705 67.891 15.805 L 67.891 15.805 L 67.652 17.271 L 69.66 17.481 L 69.66 17.481 C 71.698 17.7 73.147 18.185 74.006 18.937 L 74.006 18.937 L 74.006 18.937 C 74.865 19.682 75.295 20.682 75.295 21.939 L 75.295 21.939 L 75.295 21.939 C 75.295 23.216 75.015 24.533 74.455 25.889 L 74.455 25.889 L 74.455 25.889 C 74.176 26.587 73.869 27.173 73.536 27.645 L 73.536 27.645 L 73.536 27.645 C 73.21 28.111 72.79 28.506 72.277 28.832 L 72.277 28.832 L 72.277 28.832 C 71.771 29.164 71.308 29.413 70.889 29.58 L 70.889 29.58 L 70.889 29.58 C 70.469 29.752 69.94 29.879 69.3 29.959 L 69.3 29.959 L 69.3 29.959 C 68.361 30.099 67.212 30.168 65.854 30.168 L 65.854 30.168 L 65.854 30.168 C 63.376 30.168 61.128 29.909 59.11 29.391 Z M 87.073 25.201 L 87.073 25.201 L 83.357 25.201 L 82.577 29.719 L 76.883 29.719 L 80.18 11.017 L 89.172 11.017 L 89.172 11.017 C 92.568 11.017 94.267 12.593 94.267 15.744 L 94.267 15.744 L 94.267 15.744 C 94.267 17.241 94.057 18.59 93.637 19.795 L 93.637 19.795 L 93.637 19.795 C 93.217 21.004 92.754 21.966 92.248 22.678 L 92.248 22.678 L 92.248 22.678 C 91.735 23.382 91.033 23.981 90.141 24.473 L 90.141 24.473 L 90.141 24.473 C 89.254 24.959 88.232 25.201 87.073 25.201 Z M 86.324 15.805 L 85.005 15.805 L 84.196 20.413 L 85.515 20.413 L 85.515 20.413 C 86.194 20.413 86.707 20.34 87.054 20.194 L 87.054 20.194 L 87.054 20.194 C 87.406 20.041 87.633 19.695 87.733 19.156 L 87.733 19.156 L 87.733 19.156 C 87.992 17.68 88.122 16.872 88.122 16.732 L 88.122 16.732 L 88.122 16.732 C 88.122 16.353 87.973 16.104 87.673 15.985 L 87.673 15.985 L 87.673 15.985 C 87.373 15.865 86.924 15.805 86.324 15.805 L 86.324 15.805 Z M 101.519 17.271 L 101.519 17.271 L 100.14 25.051 L 102.508 25.051 L 102.508 25.051 C 103.287 25.051 103.867 24.959 104.246 24.772 L 104.246 24.772 L 104.246 24.772 C 104.626 24.58 104.876 24.144 104.995 23.465 L 104.995 23.465 L 106.374 15.685 L 103.976 15.685 L 103.976 15.685 C 103.217 15.685 102.648 15.777 102.268 15.965 L 102.268 15.965 L 102.268 15.965 C 101.888 16.157 101.639 16.593 101.519 17.271 Z M 104.966 10.568 L 104.966 10.568 L 104.966 10.568 C 107.503 10.568 109.311 11.064 110.39 12.054 L 110.39 12.054 L 110.39 12.054 C 111.469 13.039 112.009 14.558 112.009 16.613 L 112.009 16.613 L 112.009 16.613 C 112.009 18.668 111.683 20.819 111.03 23.066 L 111.03 23.066 L 111.03 23.066 C 110.384 25.308 109.355 27.049 107.943 28.293 L 107.943 28.293 L 107.943 28.293 C 106.538 29.543 104.48 30.168 101.769 30.168 L 101.769 30.168 L 101.769 30.168 C 99.065 30.168 97.173 29.677 96.094 28.692 L 96.094 28.692 L 96.094 28.692 C 95.015 27.701 94.476 26.178 94.476 24.123 L 94.476 24.123 L 94.476 24.123 C 94.476 23.146 94.615 21.856 94.895 20.254 L 94.895 20.254 L 94.895 20.254 C 95.175 18.645 95.545 17.258 96.004 16.094 L 96.004 16.094 L 96.004 16.094 C 96.464 14.924 97.083 13.909 97.862 13.052 L 97.862 13.052 L 97.862 13.052 C 99.361 11.396 101.729 10.568 104.966 10.568 Z M 126.485 23.495 L 128.463 29.719 L 122.199 29.719 L 120.821 24.153 L 119.592 24.153 L 118.633 29.719 L 112.938 29.719 L 116.235 11.017 L 125.226 11.017 L 125.226 11.017 C 128.643 11.017 130.351 12.543 130.351 15.595 L 130.351 15.595 L 130.351 15.595 C 130.351 16.852 130.162 18.049 129.782 19.186 L 129.782 19.186 L 129.782 19.186 C 129.083 21.34 127.984 22.777 126.485 23.495 L 126.485 23.495 Z M 122.199 15.805 L 121.06 15.805 L 120.401 19.545 L 121.72 19.545 L 121.72 19.545 C 122.399 19.545 122.911 19.472 123.258 19.326 L 123.258 19.326 L 123.258 19.326 C 123.611 19.173 123.851 18.744 123.977 18.039 L 123.977 18.039 L 123.977 18.039 C 124.11 17.328 124.177 16.892 124.177 16.732 L 124.177 16.732 L 124.177 16.732 C 124.177 16.333 124.024 16.077 123.718 15.965 L 123.718 15.965 L 123.718 15.965 C 123.405 15.857 122.899 15.805 122.199 15.805 L 122.199 15.805 Z M 146.776 11.017 L 145.907 15.805 L 141.771 15.805 L 139.343 29.719 L 133.648 29.719 L 136.076 15.805 L 131.97 15.805 L 132.839 11.017 L 146.776 11.017 Z M 145.337 29.391 L 145.337 29.391 L 147.016 24.453 L 147.016 24.453 C 148.694 24.912 150.233 25.141 151.631 25.141 L 151.631 25.141 L 151.631 25.141 C 153.03 25.141 154.159 25.081 155.018 24.961 L 155.018 24.961 L 155.258 23.465 L 152.77 23.226 L 152.77 23.226 C 150.872 23.047 149.526 22.617 148.734 21.939 L 148.734 21.939 L 148.734 21.939 C 147.948 21.261 147.555 20.303 147.555 19.067 L 147.555 19.067 L 147.555 19.067 C 147.555 18.527 147.615 17.929 147.735 17.271 L 147.735 17.271 L 147.735 17.271 C 148.195 14.718 149.027 12.961 150.233 12.005 L 150.233 12.005 L 150.233 12.005 C 151.445 11.047 153.32 10.568 155.858 10.568 L 155.858 10.568 L 155.858 10.568 C 158.395 10.568 160.633 10.817 162.571 11.316 L 162.571 11.316 L 161.013 16.104 L 161.013 16.104 C 159.274 15.805 157.875 15.655 156.817 15.655 L 156.817 15.655 L 156.817 15.655 C 155.758 15.655 154.859 15.705 154.119 15.805 L 154.119 15.805 L 153.879 17.271 L 155.887 17.481 L 155.887 17.481 C 157.925 17.7 159.374 18.185 160.233 18.937 L 160.233 18.937 L 160.233 18.937 C 161.092 19.682 161.522 20.682 161.522 21.939 L 161.522 21.939 L 161.522 21.939 C 161.522 23.216 161.242 24.533 160.683 25.889 L 160.683 25.889 L 160.683 25.889 C 160.403 26.587 160.097 27.173 159.764 27.645 L 159.764 27.645 L 159.764 27.645 C 159.437 28.111 159.018 28.506 158.505 28.832 L 158.505 28.832 L 158.505 28.832 C 157.999 29.164 157.536 29.413 157.116 29.58 L 157.116 29.58 L 157.116 29.58 C 156.697 29.752 156.167 29.879 155.528 29.959 L 155.528 29.959 L 155.528 29.959 C 154.588 30.099 153.44 30.168 152.081 30.168 L 152.081 30.168 L 152.081 30.168 C 149.604 30.168 147.356 29.909 145.337 29.391 Z" style="white-space: pre; fill: rgb(255, 255, 255);"/>
  <path d="M 47.423 9.832 C 52.972 9.832 57.448 14.312 57.462 19.868 C 57.471 25.294 52.952 29.823 47.508 29.832 C 41.903 29.845 37.426 25.346 37.43 19.714 C 37.433 14.335 41.985 9.832 47.423 9.832 Z M 47.653 15.326 C 47.653 15.738 47.63 16.017 47.663 16.29 C 47.68 16.439 47.751 16.625 47.863 16.711 C 48.758 17.381 49.664 18.032 50.576 18.676 C 50.675 18.745 50.845 18.772 50.961 18.738 C 51.48 18.597 51.998 18.442 52.504 18.258 C 52.629 18.212 52.781 18.048 52.791 17.926 C 52.89 16.921 52.968 15.912 53.031 14.903 C 53.037 14.774 52.962 14.594 52.86 14.515 C 52.301 14.055 51.734 13.608 51.149 13.185 C 51.033 13.103 50.803 13.083 50.665 13.135 C 49.98 13.401 49.325 13.753 48.627 13.98 C 47.87 14.226 47.39 14.581 47.653 15.326 Z M 47.205 15.482 C 47.205 15.245 47.185 15.008 47.212 14.772 C 47.238 14.509 47.15 14.378 46.899 14.275 C 45.988 13.904 45.089 13.5 44.174 13.128 C 44.046 13.076 43.832 13.092 43.723 13.168 C 43.144 13.579 42.578 14.005 42.028 14.453 C 41.923 14.539 41.837 14.735 41.847 14.873 C 41.916 15.882 42.018 16.888 42.094 17.897 C 42.11 18.12 42.213 18.208 42.417 18.272 C 42.883 18.41 43.344 18.557 43.802 18.728 C 44.03 18.813 44.19 18.772 44.375 18.632 C 45.027 18.144 45.662 17.627 46.356 17.206 C 47.034 16.786 47.423 16.303 47.205 15.482 Z M 55.21 21.391 C 55.176 21.327 55.144 21.242 55.091 21.176 C 54.413 20.374 53.738 19.569 53.044 18.778 C 52.975 18.698 52.787 18.662 52.679 18.692 C 52.159 18.83 51.642 18.987 51.136 19.165 C 51.01 19.208 50.872 19.342 50.829 19.465 C 50.47 20.519 50.125 21.581 49.792 22.645 C 49.753 22.771 49.783 22.957 49.855 23.069 C 50.151 23.516 50.467 23.957 50.803 24.377 C 50.875 24.469 51.066 24.535 51.182 24.509 C 51.902 24.358 52.606 24.117 53.334 24.022 C 54.153 23.917 54.624 23.562 54.769 22.727 C 54.851 22.281 55.055 21.856 55.21 21.391 Z M 42.028 18.6 C 41.959 18.666 41.87 18.735 41.798 18.817 C 41.14 19.566 40.475 20.315 39.833 21.081 C 39.741 21.193 39.694 21.416 39.737 21.558 C 39.921 22.201 40.129 22.836 40.363 23.463 C 40.416 23.602 40.58 23.76 40.721 23.795 C 41.689 24.049 42.663 24.266 43.631 24.512 C 43.844 24.564 43.963 24.538 44.089 24.351 C 44.375 23.927 44.697 23.526 44.977 23.099 C 45.056 22.977 45.103 22.78 45.063 22.645 C 44.74 21.59 44.394 20.546 44.049 19.497 C 44.016 19.401 43.977 19.257 43.904 19.232 C 43.298 19.017 42.686 18.82 42.028 18.6 Z M 44.279 24.834 C 44.862 25.787 45.418 26.707 45.997 27.613 C 46.077 27.739 46.274 27.854 46.422 27.861 C 47.103 27.886 47.788 27.884 48.473 27.864 C 48.601 27.861 48.778 27.769 48.845 27.659 C 49.391 26.796 49.924 25.921 50.441 25.038 C 50.5 24.939 50.487 24.735 50.421 24.637 C 50.125 24.186 49.809 23.753 49.473 23.329 C 49.391 23.227 49.219 23.145 49.085 23.142 C 47.978 23.129 46.876 23.129 45.77 23.142 C 45.639 23.145 45.464 23.224 45.385 23.325 C 45.003 23.815 44.651 24.321 44.279 24.834 Z M 55.381 14.489 C 54.101 12.681 52.508 11.465 50.428 10.759 C 50.583 11.154 50.734 11.459 50.829 11.781 C 51 12.375 51.343 12.817 51.86 13.158 C 52.307 13.454 52.709 13.819 53.14 14.14 C 53.262 14.232 53.41 14.321 53.555 14.338 C 54.128 14.403 54.703 14.436 55.381 14.489 Z M 39.636 14.378 C 40.748 14.436 41.778 14.332 42.578 13.467 C 42.72 13.316 42.894 13.185 43.075 13.086 C 43.963 12.599 43.983 11.64 44.415 10.832 C 42.844 11.147 40.411 12.971 39.636 14.378 Z M 57.001 20.335 C 55.335 21.209 54.44 24.019 55.176 25.452 C 56.286 23.92 56.876 22.238 57.001 20.335 Z M 37.934 20.338 C 38.01 22.201 38.582 23.877 39.682 25.413 C 40.099 24.245 40.073 24.016 39.306 21.699 C 39.079 21.015 38.384 20.809 37.934 20.338 Z M 49.953 29.047 C 48.93 27.92 45.536 28.124 44.846 29.027 C 46.55 29.493 48.239 29.507 49.953 29.047 Z" style="fill: rgb(204, 204, 204);"/>
</svg>

<svg xmlns="http://www.w3.org/2000/svg" viewBox="0 0 200 40"><path d="m59.11 29.4 1.68-4.95q2.52.7 4.61.7t3.4-.19l.23-1.5-2.49-.23q-2.85-.27-4.03-1.3a3.6 3.6 0 0 1-1.18-2.86q0-.81.18-1.8.69-3.82 2.5-5.26 1.8-1.44 5.62-1.44 3.81 0 6.71.75l-1.56 4.78a26 26 0 0 0-4.2-.45q-1.58 0-2.69.15l-.24 1.47 2.01.21q3.06.32 4.35 1.46a3.8 3.8 0 0 1 1.28 3q0 1.92-.84 3.95-.41 1.05-.91 1.75t-1.26 1.2-1.4.74q-.62.26-1.58.38-1.41.2-3.45.2-3.7 0-6.74-.77m27.96-4.2h-3.71l-.78 4.52h-5.7l3.3-18.7h9q5.09 0 5.09 4.72 0 2.25-.63 4.06a12 12 0 0 1-1.4 2.88q-.75 1.05-2.1 1.8-1.33.72-3.07.72m-.75-9.4h-1.31l-.81 4.61h1.31q1.03 0 1.54-.22.53-.23.68-1.03.4-2.22.4-2.43 0-.57-.46-.75-.45-.18-1.35-.18m15.2 1.47-1.38 7.78h2.37q1.17 0 1.74-.28t.75-1.3l1.37-7.78h-2.4a4 4 0 0 0-1.7.28q-.57.28-.75 1.3m3.45-6.7q3.8 0 5.42 1.48t1.62 4.56-.98 6.46a10.7 10.7 0 0 1-3.09 5.22q-2.1 1.88-6.17 1.88-4.05 0-5.68-1.48-1.61-1.48-1.61-4.57 0-1.46.41-3.87.43-2.41 1.11-4.16a10 10 0 0 1 1.86-3.04q2.25-2.48 7.1-2.48m21.52 12.93 1.97 6.22h-6.26l-1.38-5.57h-1.23l-.96 5.57h-5.7l3.3-18.7h9q5.12 0 5.12 4.58 0 1.88-.57 3.59-1.05 3.23-3.3 4.3m-4.3-7.7h-1.13l-.66 3.75h1.32q1.03 0 1.54-.22.53-.24.72-1.3.2-1.05.2-1.3 0-.6-.46-.77a5 5 0 0 0-1.52-.16M146.77 11l-.87 4.79h-4.14l-2.43 13.9h-5.7l2.44-13.9h-4.11l.87-4.8zm-1.44 18.37 1.68-4.94q2.5.7 4.61.7 2.1 0 3.39-.19l.24-1.5-2.49-.23q-2.84-.27-4.04-1.3a3.6 3.6 0 0 1-1.17-2.86q0-.81.18-1.8.68-3.82 2.5-5.26 1.8-1.44 5.62-1.44 3.8 0 6.71.75L161 16.08q-2.6-.45-4.2-.45-1.57 0-2.7.15l-.23 1.47 2 .21q3.07.32 4.35 1.46a3.8 3.8 0 0 1 1.3 3q0 1.92-.85 3.95-.42 1.05-.92 1.75a4 4 0 0 1-1.25 1.2q-.76.48-1.4.74-.62.26-1.58.38-1.41.2-3.45.2-3.72 0-6.74-.77" style="white-space:pre;fill:#fff"/><path d="M47.42 9.83c5.55 0 10.03 4.48 10.04 10.04.01 5.42-4.5 9.95-9.95 9.96a10.03 10.03 0 0 1-10.08-10.12c0-5.37 4.56-9.88 10-9.88m.23 5.5c0 .4-.02.69.01.96.02.15.1.34.2.42q1.34 1 2.72 1.97c.1.07.27.1.38.06q.78-.21 1.54-.48c.13-.05.28-.21.3-.33q.14-1.5.23-3.03c0-.13-.07-.3-.17-.38q-.84-.7-1.71-1.33a.6.6 0 0 0-.48-.05c-.69.26-1.34.61-2.04.84-.76.25-1.24.6-.98 1.35m-.45.15q-.02-.36.01-.7c.03-.27-.06-.4-.31-.5l-2.73-1.15a.6.6 0 0 0-.45.04q-.86.61-1.7 1.28a.6.6 0 0 0-.17.42l.24 3.03c.02.22.12.3.33.37q.69.2 1.38.46c.23.08.39.04.58-.1.65-.49 1.28-1 1.98-1.42.67-.42 1.06-.9.84-1.73m8.01 5.91-.12-.21q-1.01-1.2-2.05-2.4c-.06-.08-.25-.12-.36-.09q-.79.21-1.54.47a.6.6 0 0 0-.31.3q-.54 1.59-1.04 3.18c-.04.13 0 .32.06.43q.45.68.95 1.3c.08.1.27.16.38.14.72-.15 1.43-.4 2.15-.49.82-.1 1.3-.46 1.44-1.3.08-.44.28-.86.44-1.33M42.03 18.6l-.23.22-1.97 2.26a.6.6 0 0 0-.1.48q.3.97.63 1.9c.06.14.22.3.36.34l2.91.71c.21.05.33.03.46-.16l.89-1.25a.6.6 0 0 0 .08-.46q-.49-1.58-1.01-3.14c-.03-.1-.07-.24-.15-.27zm2.25 6.23q.86 1.43 1.72 2.78a.6.6 0 0 0 .42.25q1.02.04 2.05 0c.13 0 .3-.1.38-.2l1.6-2.62c.05-.1.04-.3-.03-.4q-.45-.68-.95-1.31a.6.6 0 0 0-.38-.19h-3.32a.6.6 0 0 0-.39.18q-.56.75-1.1 1.51m11.1-10.34a9.7 9.7 0 0 0-4.95-3.73c.15.4.3.7.4 1.02q.25.89 1.03 1.38c.45.3.85.66 1.28.98q.19.16.41.2c.58.06 1.15.1 1.83.15m-15.74-.11c1.1.06 2.14-.05 2.94-.91q.21-.23.5-.38c.88-.5.9-1.45 1.34-2.26-1.58.32-4 2.14-4.78 3.55M57 20.34c-1.66.87-2.56 3.68-1.82 5.11A9.6 9.6 0 0 0 57 20.34m-19.07 0a9 9 0 0 0 1.75 5.07c.42-1.16.4-1.4-.37-3.71-.23-.68-.93-.9-1.38-1.36m12.02 8.7c-1.02-1.12-4.41-.92-5.1-.01q2.54.7 5.1.02" style="fill:#ccc"/></svg>
